src/icons/android-bar.svg

<svg xmlns="http://www.w3.org/2000/svg" width="512" height="512" viewBox="0 0 512 512">
    <path d="M234.667 270.833V401.5H128v40h256v-40H277.333V270.833L448 100.167V57.5H64v42.667l170.667 170.666zm-74.667-128l-42.667-42.666h277.334L352 142.833H160z"/>
</svg>

<?xml version="1.0" encoding="UTF-8"?>
<svg width="512px" height="512px" viewBox="0 0 512 512" version="1.1" xmlns="http://www.w3.org/2000/svg" xmlns:xlink="http://www.w3.org/1999/xlink">
    <!-- Generator: Sketch 62 (91390) - https://sketch.com -->
    <title>android-bar</title>
    <desc>Created with Sketch.</desc>
    <g id="android-bar" stroke="none" stroke-width="1" fill="none" fill-rule="evenodd">
        <path d="M234.667,270.833 L234.667,401.5 L128,401.5 L128,441.5 L384,441.5 L384,401.5 L277.333,401.5 L277.333,270.833 L448,100.167 L448,57.5 L64,57.5 L64,100.167 L234.667,270.833 Z M160,142.833 L117.333,100.167 L394.667,100.167 L352,142.833 L160,142.833 L160,142.833 Z" id="Shape" fill="#000000" fill-rule="nonzero"></path>
    </g>
</svg>
